X:1
T:Behold, How Good and Joyful
T:Samuel Wesley (1766 - 1837)
T:Psalm 133 v. 1
T:Behold, How Good and Joyful
T:A SHORT ANTHEM FOR MEN’S VOICES
T:Copyright © 2006 by the Choral Public Domain Library (http://www.cpdl.org) Edition may be freely distributed, duplicated, performed, or recorded. Please send comments, amendments, suggestions and corrections to robertnottingham6@hotmail.com
T:Copyright © 2006 by the Choral Public Domain Library (http://www.cpdl.org) Edition may be freely distributed, duplicated, performed, or recorded. Please send comments, amendments, suggestions and corrections to robertnottingham6@hotmail.com
T:Copyright © 2006 by the Choral Public Domain Library (http://www.cpdl.org) Edition may be freely distributed, duplicated, performed, or recorded. Please send comments, amendments, suggestions and corrections to robertnottingham6@hotmail.com
T:Copyright © 2006 by the Choral Public Domain Library (http://www.cpdl.org) Edition may be freely distributed, duplicated, performed, or recorded. Please send comments, amendments, suggestions and corrections to robertnottingham6@hotmail.com
T:Copyright © 2006 by the Choral Public Domain Library (http://www.cpdl.org) Edition may be freely distributed, duplicated, performed, or recorded. Please send comments, amendments, suggestions and corrections to robertnottingham6@hotmail.com
T:Copyright © 2006 by the Choral Public Domain Library (http://www.cpdl.org) Edition may be freely distributed, duplicated, performed, or recorded. Please send comments, amendments, suggestions and corrections to robertnottingham6@hotmail.com
C:Samuel Wesley
C:(1766 - 1837)
Z:Psalm 133 v. 1
Z:Copyright © 2006 by the Choral Public Domain Library (http://www.cpdl.org)
Z:Edition may be freely distributed, duplicated, performed, or recorded.
Z:Please send comments, amendments, suggestions and corrections to robertnottingham6@hotmail.com
%%score [ 1 2 3 ] { ( 4 6 ) | 5 }
L:1/8
M:4/4
K:Bb
V:1 treble nm="ALTO" snm="A."
V:2 treble-8 transpose=-12 nm="TENOR" snm="T."
V:3 bass nm="BASS" snm="B."
V:4 treble nm="Accomp. (for rehearsal only)" snm="Org."
V:6 treble 
V:5 bass 
V:1
"^Cheerful" z2!f! B,2 D2 F2 | B4 F4 | G4 z2 D2 | E2 G>G F2 E2 | D4 z4 | E4 D3 D | (D2 C4) B,2 | %7
w: Be- hold, be-|hold, how|good and|joy- ful a thing it|is,|breth- ren, to|dwell _ to-|
 (A,C) E4 D2 | D3 C C2 z2 | z2 F,2 G,2 A,2 | B,2 (CD) (FE)DC | D2 B,2 C2 D2 | E2 (FG) (B_A)GF | %13
w: geth- * er in|u- ni- ty,|be- hold, how|good and _ joy- * ful a|thing, be- hold, how|good and _ joy- * ful a|
 G3 F E2 z2 |!p! F2 B4 A2 | (G3 A B2) (AG) | G2 F4 =E2 | =E3 F F2!f! C2 | G4 D4 | E4 z2 G2 | %20
w: thing it is,|breth- ren, to|dwell _ _ to- *|geth- er in|u- ni- ty. Be-|hold, how|good and|
 F2 D>C B,2 E2 | (D2 C2) z4 |!p! F2 F>F G2 A2 | B2 B>A G2 F2 | E2 D>E (D2 C>)B, | B,4!f! G4 | %26
w: joy- ful a thing it|is, _|breth- ren, to dwell to-|geth- er, to dwell to-|geth- er in u- * ni-|ty. How|
 G2 A>G F2 F2 | B4 E4 | E2 F>E D2 D2 | G4 z4 | F4 G3 G | C4 z2 F2 | B,2 E2 CC F2 | %33
w: joy- ful a thing it|is, how|joy- ful a thing it|is,|breth- ren, to|dwell, to|dwell to- geth- er in|
 E3 D D2 !fermata!z2 |"^slow"[Q:1/4=60][Q:1/4=60] F4 G2 (Gc) | (!fermata!B4 !fermata!A2) F2 | %36
w: u- ni- ty,|breth- ren, to _|dwell, _ to|
 (3(B2 A2 G2 (3F2 G2 E2 | (3D2 E2 D2)"^tr." C4 | D6 C2 | !fermata!B,4 z4 |] %40
w: dwell _ _ _ _ _|_ _ _ in|u- ni-|ty.|
V:2
 z2!f! B2 B2 c2 | B4 B4 | B4 z2 A2 | B2 d>d c2 A2 | B4 z4 | B4 A3 A | G6 F2 | (FA) c4 B2 | %8
w: Be- hold, be-|hold, how|good and|joy- ful a thing it|is,|breth- ren, to|dwell to-|geth- * er in|
 B3 A A2 z2 | z2 F2 E2 E2 | F2 B2 (dc)BA | B2 B2 B2 B2 | B2 e2 (gf)ed | e3 B G2 z2 |!p! d2 f4 =e2 | %15
w: u- ni- ty,|be- hold, how|good and joy- * ful a|thing, be- hold, how|good and joy- * ful a|thing it is,|breth- ren, to|
 (d3 c Bd) (cB) | B2 A4 G2 | B3 A A2!f! A2 | c4 =B4 | c4 z2 A2 | _B2 A>A G2 c2 | (B2 A2) z4 | %22
w: dwell _ _ _ to- *|geth- er in|u- ni- ty. Be-|hold, how|good and|joy- ful a thing it|is, _|
!p! f2 f>f f2 e2 | (dc) B>B B2 B2 | (GA) B>c (B2 A>)B | B4!f! d4 | c2 c>c d2 (dc) | B4 (c3 B) | %28
w: breth- ren, to dwell to-|geth- * er, to dwell to-|geth- * er in u- * ni-|ty. How|joy- ful a thing it _|is, how _|
 A2 A>A B2 B2 | B4 z4 | d4 c3 B | A4 z2 A2 | B2 c2 BB A2 | c3 B B2 !fermata!z2 | B4 B2 e2 | %35
w: joy- ful a thing it|is,|breth- ren, to|dwell, to|dwell to- geth- er in|u- ni- ty,|breth- ren, to|
 (!fermata!d4 !fermata!c2) f2 | (3(g2 f2 e2 (3d2 e2 c2 | (3B2 c2 B2)"^tr." A4 | B6 A2 | %39
w: dwell, _ to|dwell _ _ _ _ _|_ _ _ in|u- ni-|
 !fermata!B4 z4 |] %40
w: ty.|
V:3
 z2!f! B,,2 B,2 A,2 | G,4 D,4 | E,4 z2 F,2 | G,2 B,>B, A,2 F,2 | B,4 z4 | G,4 F,3 F, | E,6 D,2 | %7
w: Be- hold, be-|hold, how|good and|joy- ful a thing it|is,|breth- ren, to|dwell to-|
 C,2 A,,4 B,,2 | F,3 F, F,2 z2 | z2 D,2 E,2 C,2 | D,2 G,2 C,2 F,F, | B,,2 B,2 B,2 _A,2 | %12
w: geth- er in|u- ni- ty,|be- hold, how|good and joy- ful a|thing, be- hold, how|
 G,2 C2 F,2 B,B, | E,3 E, E,2!p! z2 | B,2 D4 C2 | (B,3 A, G,2) G,,2 | C,2 C,4 C,2 | %17
w: good and joy- ful a|thing it is,|breth- ren, to|dwell _ _ to-|geth- er in|
 F,3 F, F,2!f! F,2 | E,4 G,4 | C,4 z2 E,2 | D,2 F,>F, G,2 E,2 | F,4 z4 |!p! D,2 D,>D, E,2 F,2 | %23
w: u- ni- ty. Be-|hold, how|good and|joy- ful a thing it|is,|breth- ren, to dwell to-|
 G,2 G,>F, E,2 D,2 | C,2 B,,>B,, F,2- F,>F, | B,,4!f! B,4 | (A,G,F,E, D,E,F,D, | %27
w: geth- er, to dwell to-|geth- er in u- * ni-|ty. How|joy- * * * * * * *|
 G,F,E,D, C,D,E,C, | F,E,)D,C, (B,,C,) (D,B,,) | E,4 z4 | D,4 E,3 E, | F,4 z2 D,2 | %32
w: |* * ful a thing _ it _|is,|breth- ren, to|dwell, to|
 G,2 E,2 F,F, F,,2 | B,,3 B,, B,,2 !fermata!z2 | D,4 E,2 C,2 | !fermata!F,4- !fermata!F,2 D,2 | %36
w: dwell to- geth- er in|u- ni- ty,|breth- ren, to|dwell, _ to|
 (G,4 E,4 | F,4) F,4 | B,,6 B,,2 | !fermata!B,,4 z4 |] %40
w: dwell _|_ in|u- ni-|ty.|
V:4
"^Cheerful" z2 B,2 D2 [CF]2 | [B,B]4 [B,F]4 | [B,G]4 z2 [A,D]2 | [B,E]2 [DG]>[DF] [CF]2 [A,E]2 | %4
 [B,D]4 z4 | [B,E]4 [A,D]3 [A,D] | (D2 C4) B,2 | A,C [CE]4 [B,D]2 | [B,D]3 [A,C] [A,C]2 z2 | %9
 z2 F,2 G,2 A,2 | B,2 CD [DF][CE][B,D][A,C] | [B,D]2 B,2 [B,C]2 [B,D]2 | %12
 [B,E]2 FG [GB][F_A][EG][DF] |"^Instrument change" [EG]3 [B,F] [G,E]2 z2 | %14
"^Instrument change" [DF]2 [FB]4 [=EA]2 |"^Instrument change" ([DG]3 [CA] B2) [CA][B,G] | %16
"^Instrument change" [B,G]2 [A,F]4 [G,=E]2 |"^Instrument change" [B,=E]3 [A,F] [A,F]2 [A,C]2 | %18
"^Instrument change" [CG]4 [=B,D]4 |"^Instrument change" [CE]4 z2 [A,G]2 | %20
"^Instrument change" [_B,F]2 [A,D]>[A,C] B,2 [CE]2 |"^Instrument change" [B,D]2 [A,C]2 z4 | %22
"^Instrument change" F2 F>F [FG]2 [DA]2 |"^Instrument change" B2 [B,B]>[B,A] [B,G]2 [B,F]2 | %24
"^Instrument change" E2 [B,D]>[CE] ([B,D]2 [A,C]>)B, |"^Instrument change" B,4 [DG]4 | %26
"^Instrument change" [CG]2 [CA]>[CG] [DF]2 F2 |"^Instrument change" [B,B]4 E4 | %28
"^Instrument change" [A,E]2 [A,F]>[A,E] [B,D]2 [B,D]2 |"^Instrument change" [B,G]4 z4 | %30
"^Instrument change" [DF]4 [CG]3 [B,G] |"^Instrument change" [A,C]4 z2 [A,F]2 | %32
"^Instrument change" B,2 [CE]2 [B,C][B,C] [A,F]2 | %33
"^Instrument change" [CE]3 [B,D] [B,D]2 !fermata!z2 |"^slow" [B,F]4 [B,G]2 Gc | %35
"^Instrument change" (!fermata![DB]4 !fermata![CA]2) F2 | %36
"^Instrument change" (3[GB]2 [FA]2 [EG]2 (3[DF]2 [EG]2 [CE]2 | %37
"^Instrument change" (3[B,D]2 [CE]2 [B,D]2 [A,C]4 |"^Instrument change" [B,D]6 [A,C]2 | %39
"^Instrument change" !fermata!B,4 z4 |] %40
V:5
 z2!f! B,,2 B,2 A,2 | G,4 D,4 | E,4 z2 F,2 | G,2 B,>B, A,2 F,2 | B,4 z4 | G,4 F,3 F, | %6
 E,6 [D,F,]2 | C,2 A,,4 B,,2 | F,3 F, F,2 z2 | z2 D,2 E,2 [C,E,]2 | [D,F,]2 G,2 C,2 F,F, | %11
 B,,2 B,2 B,2 _A,2 | G,2 C2 F,2 B,B, | E,3 E, E,2 z2 |!p! B,2 D4 C2 | B,3 A, G,2 G,,2 | %16
 C,2 C,4 C,2 | F,3 F, F,2!f! F,2 | E,4 G,4 | C,4 z2 E,2 | D,2 F,>F, G,2 E,2 | F,4 z4 | %22
!p! D,2 D,>D, E,2 F,2 | G,2 G,>F, E,2 D,2 | C,2 B,,>B,, F,2- F,>F, | B,,4!f! B,4 | %26
 A,G,F,E, D,E,F,D, | G,F,E,D, C,D,E,C, | F,E,D,C, B,,C,D,B,, | E,4 z4 | D,4 E,3 E, | F,4 z2 D,2 | %32
 G,2 E,2 F,F, F,,2 | B,,3 B,, B,,2 !fermata!z2 | D,4 E,2 C,2 | !fermata!F,4- !fermata!F,2 D,2 | %36
"^SOURCE: Novello’s Services, Anthems, &c., for Men’s Voices No. 103. (printed July 1932)COMPOSER: Samuel Wesley (1766 - 1837)transcribed from Novello edition by Robert G. Nottingham 26/09/06TEXT: Psalm 133 v. 1Behold, how good and joyful a thing it is, brethren, to dwell together in unity." G,4 E,4 | %37
 F,4 F,4 | B,,6 B,,2 | !fermata!B,,4 z4 |] %40
V:6
 x8 | x8 | x8 | x8 | x8 | x8 | B,6 x2 |[I:staff +1] F,[I:staff -1]A, x2 x4 | x8 | x8 | x2 B,2 x4 | %11
 x8 | x2 E2 x4 | x8 | x8 | x4 B,D x2 | x8 | x8 | x8 | x8 | x8 | x8 | x8 | DC x2 x4 | G,A, x2 x4 | %25
 x8 | x4 x2 DC | x4 C3 B, | x8 | x8 | x8 | x8 | x8 | x8 | x4 x2 E2 | x8 | x8 | x8 | x8 | x8 |] %40

